icon-svg/wall-impress.svg

<svg xmlns="http://www.w3.org/2000/svg" viewBox="0 0 24 24"><path fill="#44739e" d="m10.272 2-5.186.988v18.024l5.186.988 8.642-2.222V3.975Zm-.988 18.519-3.21-.494v-.494l2.716-.494V4.716l-2.716-.494v-.247l3.21-.494ZM18.173 5.7v12.349l-2.716-.493v.74l2.716.494-7.161 1.729V3.481l7.161 1.482-2.716.494V6.2Z"/></svg>

<?xml version="1.0" encoding="UTF-8"?>
<svg width="33px" height="32px" viewBox="0 0 24 24" fill="#44739e" version="1.1" xmlns="http://www.w3.org/2000/svg" xmlns:xlink="http://www.w3.org/1999/xlink">
            <path d="M 10.272,2 5.086,2.988 V 21.012 L 10.272,22 18.914,19.778 V 3.975 Z M 9.284,20.519 6.074,20.025 V 19.531 L 8.79,19.037 V 4.716 L 6.074,4.222 V 3.975 L 9.284,3.481 Z M 18.173,5.7 v 12.349 l -2.716,-0.493 v 0.74 l 2.716,0.494 -7.161,1.729 V 3.481 l 7.161,1.482 -2.716,0.494 V 6.2 Z"></path>

</svg>
